src/lib/packages/icons/src/assets/line/arrow-back-square-alt.svg

<svg width="24" height="24" viewBox="0 0 24 24" fill="none" xmlns="http://www.w3.org/2000/svg">
<path d="M17.625 2.25H6.375C3.715 2.25 2.25 3.715 2.25 6.375V17.625C2.25 20.285 3.715 21.75 6.375 21.75H17.625C20.285 21.75 21.75 20.285 21.75 17.625V6.375C21.75 3.715 20.285 2.25 17.625 2.25ZM20.25 17.625C20.25 19.465 19.465 20.25 17.625 20.25H6.375C4.535 20.25 3.75 19.465 3.75 17.625V6.375C3.75 4.535 4.535 3.75 6.375 3.75H17.625C19.465 3.75 20.25 4.535 20.25 6.375V17.625ZM17.291 13.1069C17.387 13.5099 17.1379 13.914 16.7339 14.01C16.6749 14.024 16.6181 14.03 16.5601 14.03C16.2201 14.03 15.9131 13.7979 15.8311 13.4529C15.4151 11.6989 13.8601 10.4741 12.0491 10.4741C10.8281 10.4741 9.69907 11.0509 8.97607 11.9829H9.77588C10.1899 11.9829 10.5259 12.3189 10.5259 12.7329C10.5259 13.1469 10.1899 13.4829 9.77588 13.4829H7.88696C7.74296 13.5219 7.58996 13.5321 7.43896 13.4771C7.42096 13.4711 7.41007 13.457 7.39307 13.449C7.06207 13.371 6.81006 13.0879 6.81006 12.7329V10.52C6.81006 10.106 7.14606 9.77002 7.56006 9.77002C7.96506 9.77002 8.29093 10.0931 8.30493 10.4951C9.28893 9.54312 10.6231 8.97412 12.0481 8.97412C14.5601 8.97412 16.715 10.6729 17.291 13.1069Z" fill="currentColor"/>
</svg>

<svg xmlns="http://www.w3.org/2000/svg" width="24" height="24" fill="none"><path fill="currentColor" d="M17.625 2.25H6.375c-2.66 0-4.125 1.465-4.125 4.125v11.25c0 2.66 1.465 4.125 4.125 4.125h11.25c2.66 0 4.125-1.465 4.125-4.125V6.375c0-2.66-1.465-4.125-4.125-4.125Zm2.625 15.375c0 1.84-.785 2.625-2.625 2.625H6.375c-1.84 0-2.625-.785-2.625-2.625V6.375c0-1.84.785-2.625 2.625-2.625h11.25c1.84 0 2.625.785 2.625 2.625v11.25Zm-2.959-4.518a.75.75 0 1 1-1.46.346 3.867 3.867 0 0 0-3.782-2.979c-1.22 0-2.35.577-3.073 1.509h.8a.75.75 0 0 1 0 1.5H7.887a.73.73 0 0 1-.448-.006c-.018-.006-.029-.02-.046-.028a.74.74 0 0 1-.583-.716V10.52a.747.747 0 0 1 1.495-.025 5.389 5.389 0 0 1 3.743-1.52 5.36 5.36 0 0 1 5.243 4.132Z"/></svg>
